client/src/img/menus/frame.svg

<svg xmlns="http://www.w3.org/2000/svg" viewBox="0 -0.5 16 16" shape-rendering="crispEdges"><path stroke="#000" d="M2 0h12M1 1h1m12 0h1M0 2h1m14 0h1M0 3h1m2 0h10m2 0h1M0 4h1m2 0h1m8 0h1m2 0h1M0 5h1m2 0h1m8 0h1m2 0h1M0 6h1m2 0h1m8 0h1m2 0h1M0 7h1m2 0h1m8 0h1m2 0h1M0 8h1m2 0h1m8 0h1m2 0h1M0 9h1m2 0h1m8 0h1m2 0h1M0 10h1m2 0h1m8 0h1m2 0h1M0 11h1m2 0h1m8 0h1m2 0h1M0 12h1m2 0h10m2 0h1M0 13h1m14 0h1M1 14h1m12 0h1M2 15h12"/><path stroke="#39372e" d="M2 1h1"/><path stroke="#535143" d="M3 1h11M1 2h1M1 3h1m11 0h1m-1 1h1M1 5h1m11 0h1M1 6h1m11 0h1M1 7h1m11 0h1M1 8h1m11 0h1M1 9h1m11 0h1M1 10h1m11 0h1M1 11h1m11 0h1M1 12h1m11 0h1M1 13h1m1 0h10"/><path stroke="#282828" d="M2 2h1m10 0h1M2 13h1m10 0h1m-3 1h1"/><path stroke="#1c1e21" d="M3 2h10m1 0h1M2 3h1m11 0h1M2 4h1m11 0h1M2 5h1m11 0h1M2 6h1m11 0h1M2 7h1m11 0h1M2 8h1m11 0h1M2 9h1m11 0h1M2 10h1m11 0h1M2 11h1m11 0h1M2 12h1m11 0h1m-1 1h1M2 14h9m1 0h2"/><path stroke="#1e2023" d="M1 4h1"/></svg>

<svg xmlns="http://www.w3.org/2000/svg" viewBox="0 -0.5 16 16" shape-rendering="crispEdges">
<metadata>Made with Pixels to Svg https://codepen.io/shshaw/pen/XbxvNj</metadata>
<path stroke="#000000" d="M2 0h12M1 1h1M14 1h1M0 2h1M15 2h1M0 3h1M3 3h10M15 3h1M0 4h1M3 4h1M12 4h1M15 4h1M0 5h1M3 5h1M12 5h1M15 5h1M0 6h1M3 6h1M12 6h1M15 6h1M0 7h1M3 7h1M12 7h1M15 7h1M0 8h1M3 8h1M12 8h1M15 8h1M0 9h1M3 9h1M12 9h1M15 9h1M0 10h1M3 10h1M12 10h1M15 10h1M0 11h1M3 11h1M12 11h1M15 11h1M0 12h1M3 12h10M15 12h1M0 13h1M15 13h1M1 14h1M14 14h1M2 15h12" />
<path stroke="#535143" d="M2 1h1M1 4h1" />
<path stroke="#84806a" d="M3 1h11M1 2h1M1 3h1M13 3h1M13 4h1M1 5h1M13 5h1M1 6h1M13 6h1M1 7h1M13 7h1M1 8h1M13 8h1M1 9h1M13 9h1M1 10h1M13 10h1M1 11h1M13 11h1M1 12h1M13 12h1M1 13h1M3 13h10" />
<path stroke="#404040" d="M2 2h1M13 2h1M2 13h1M13 13h1M11 14h1" />
<path stroke="#2c2f35" d="M3 2h10M14 2h1M2 3h1M14 3h1M2 4h1M14 4h1M2 5h1M14 5h1M2 6h1M14 6h1M2 7h1M14 7h1M2 8h1M14 8h1M2 9h1M14 9h1M2 10h1M14 10h1M2 11h1M14 11h1M2 12h1M14 12h1M14 13h1M2 14h9M12 14h2" />
</svg>
